X: 24
T: Puisque \`a chascun ris / Pardonnez moi / L'autrier m'aloie
N: Derived from Ano3030-Puisque_a_chascun_ris__Pardonnez_moi__Lautrier_maloie--Dijon_Chansonnier.krn
C: Anonymous
%%abc-version 2.0
%%abcx-abcm2ps-target-version 5.9.1 (29 Sep 2008)
%%abc-creator hum2abc beta
%%abcx-conversion-date 2019/02/16 20:18:27
%%abc-edited-by Jesse Rodin
%%abc-edited-by Chris Gage 03-05-2015
%%abcx-initial-encoding-date 2015/03/13/
%%humdrum-veritas 3102086504
%%humdrum-veritas-data 3643346653
%%linebreak <none>
%%barnumbers 0
L: 1/4
M: 2/1
Q: 1/2=120
%%staves [1 2 3 4]
V: 1 clef=treble
V: 2 clef=treble-8
V: 3 clef=treble-8
V: 4 clef=bass
K: F
[V:1] z4G4 | 
[V:2] z8 | 
[V:3] z4G4 | 
[V:4] z4G,,4 | 
[V:1] G4E4 | 
[V:2] z8 | 
[V:3] G4G4 | 
[V:4] B,,4C,4 | 
[V:1] C3DE2F2- | 
[V:2] z8 | 
[V:3] A4A4 | 
[V:4] A,,3B,,C,2D,2- | 
[V:1] FED4CB, | 
[V:2] z4G4 | 
[V:3] B4B4 | 
[V:4] D,C,B,,4A,,G,, | 
[V:1] A,4z4 | 
[V:2] A4A4 | 
[V:3] c4c4 | 
[V:4] F,,4F,,4 | 
[V:1] D4G,2A,2 | 
[V:2] G4d4- | 
[V:3] B6A2 | 
[V:4] G,,8 | 
[V:1] B,3CD3E | 
[V:2] d2c2B4- | 
[V:3] G4G4 | 
[V:4] z8 | 
[V:1] F2F3EDC | 
[V:2] B2AGA4 | 
[V:3] F4F4 | 
[V:4] D,8 | 
[V:1] B,4z4 | 
[V:2] G8 | 
[V:3] G8- | 
[V:4] _E,6D,2 | 
[V:1] D4E4 | 
[V:2] z4c4 | 
[V:3] G8 | 
[V:4] B,,4C,4 | 
[V:1] F4G4- | 
[V:2] c2c2B4 | 
[V:3] z4G4 | 
[V:4] A,,4G,,4 | 
[V:1] G2B4AG | 
[V:2] G4B4- | 
[V:3] G4G4 | 
[V:4] z4G,,4 | 
[V:1] F4z4 | 
[V:2] B2A2A4 | 
[V:3] A4A4 | 
[V:4] D,4C,4 | 
[V:1] [M:2/1](3F6E2D4 | 
[V:2] F4G4 | 
[V:3] B4B4 | 
[V:4] B,,8 | 
[V:1] (3C6D2E4 | 
[V:2] A8 | 
[V:3] c4c4 | 
[V:4] (3:2:2A,,8A,,4 | 
[V:1] (3D6E2F4 | 
[V:2] z8 | 
[V:3] B6A2 | 
[V:4] (3B,,6C,2D,4 | 
[V:1] (3:2:4G6F2D2E2 | 
[V:2] z8 | 
[V:3] G4G4 | 
[V:4] (3:2:4_E,6D,2B,,2C,2 | 
[V:1] (3F6E2C4 | 
[V:2] z8 | 
[V:3] F4F4 | 
[V:4] (3D,6C,2A,,4 | 
[V:1] [M:2/1]B,3CD2_E2- | 
[V:2] z4G4 | 
[V:3] G8 | 
[V:4] G,,3A,,B,,2C,2- | 
[V:1] E2F4D2 | 
[V:2] A4B4 | 
[V:3] z8 | 
[V:4] C,2D,4B,,2 | 
[V:1] _E3DB,2B2- | 
[V:2] G4d4- | 
[V:3] z4G4 | 
[V:4] C,3B,,G,,4 | 
[V:1] B2A2G2G2- | 
[V:2] d2c2B4 | 
[V:3] G4d4 | 
[V:4] z8 | 
[V:1] GFED^F3E | 
[V:2] G4A4 | 
[V:3] d4c4 | 
[V:4] z8 | 
[V:1] G4z4 | 
[V:2] G8 | 
[V:3] d4B4 | 
[V:4] G,,4B,,3C, | 
[V:1] ^F4G2E2- | 
[V:2] z8 | 
[V:3] A4G4 | 
[V:4] D,4_E,2C,2- | 
[V:1] E2F4G2- | 
[V:2] z8 | 
[V:3] A4B4 | 
[V:4] C,2D,4_E,2- | 
[V:1] G2A3Bc2 | 
[V:2] z8 | 
[V:3] c4A4 | 
[V:4] E,2F,3G,A,2 | 
[V:1] B2G4F2 | 
[V:2] z8 | 
[V:3] B8 | 
[V:4] G,2E,4D,2 | 
[V:1] A3GF2E2- | 
[V:2] z4c4 | 
[V:3] A8 | 
[V:4] F,6C,2- | 
[V:1] E2D4^C2 | 
[V:2] c3BG4 | 
[V:3] z8 | 
[V:4] C,2D,2E,4 | 
[V:1] D4z4 | 
[V:2] F4B4- | 
[V:3] z4G4 | 
[V:4] D,4G,,4 | 
[V:1] D4C2E2- | 
[V:2] B2A2G4- | 
[V:3] G4G4 | 
[V:4] B,,4C,4 | 
[V:1] EDF3EC2 | 
[V:2] G2F2F2E2 | 
[V:3] A4A4 | 
[V:4] A,,8 | 
[V:1] B,4z2B2- | 
[V:2] G8 | 
[V:3] B4B4 | 
[V:4] G,,4G,4 | 
[V:1] B2AGAGFE | 
[V:2] z8 | 
[V:3] c4c4 | 
[V:4] E,4F,4 | 
[V:1] D2G4F2 | 
[V:2] z4d4 | 
[V:3] B6A2 | 
[V:4] G,4D,4 | 
[V:1] G2B3AG2- | 
[V:2] B4c4 | 
[V:3] G4G4 | 
[V:4] _E,8 | 
[V:1] G2^F2F2E2 | 
[V:2] d8- | 
[V:3] A8 | 
[V:4] D,8 | 
[V:1] G8- | 
[V:2] d8- | 
[V:3] G8- | 
[V:4] z4G,,4 | 
[V:1] G8 |]  
[V:2] d8 |]  
[V:3] G8 |]  
[V:4] G,,8 |]  



